X: 33643
T: Rambler, The
R: jig
M: 6/8
K: Gmajor
|:GDB, G,B,D|EDB, DB,D|edB G2A|AGE EGE|
D>ED G,B,D|EDB, DB,D|edB G2A|1 AGF G2A:|2 AGF G2d||
|:d^cd GBd|g3 e/f/ge|dBd edB|BAG ABc|
d^cd GBd|gfg e/f/ge|dBd edB|1 AGF G2d:|2 AGF G2A||

